X: 54
T: Motet cycle Ave mundi domina &mdash; 3. Salve virgo virginum
C: Gaspar van Weerbeke
%%abc-version 2.0
%%abcx-abcm2ps-target-version 5.9.1 (29 Sep 2008)
%%abc-creator hum2abc beta
%%abcx-conversion-date 2022/03/06 13:05:59
%%abc-copyright Copyright 2021, Pavanello, Agnese
%%abc-edited-by Sapp, Craig Stuart
%%abc-edited-by Wissmann, Rolf
%%humdrum-veritas 484179048
%%humdrum-veritas-data 3399981045
%%linebreak <none>
%%barnumbers 0
L: 1/4
M: C|
N: Derived from Gas0301c-Ave_mundi_domina-Salve_virgo_virginum.krn
Q: 1/2=168
%%staves [1 2 3 4]
V: 1 clef=treble
V: 2 clef=treble-8
V: 3 clef=treble-8
V: 4 clef=bass
K: F
[V:1] G8 | 
[V:2] z8 | 
[V:3] z8 | 
[V:4] z8 | 
[V:1] G4A4 | 
[V:2] z8 | 
[V:3] z8 | 
[V:4] z8 | 
[V:1] B8 | 
[V:2] G8 | 
[V:3] z8 | 
[V:4] z8 | 
[V:1] B4c4 | 
[V:2] G4A4 | 
[V:3] z8 | 
[V:4] z8 | 
[V:1] d6c2 | 
[V:2] B8 | 
[V:3] G8 | 
[V:4] z8 | 
[V:1] B4A4 | 
[V:2] B4c4 | 
[V:3] G4A4 | 
[V:4] z8 | 
[V:1] G8 | 
[V:2] d6ef | 
[V:3] B8 | 
[V:4] G,,8 | 
[V:1] z8 | 
[V:2] g4e4 | 
[V:3] B4c4 | 
[V:4] G,,4A,,4 | 
[V:1] z8 | 
[V:2] d2>e2fga2- | 
[V:3] d6c2 | 
[V:4] B,,2>C,2D,E,F,2 | 
[V:1] z8 | 
[V:2] a2g4^f2 | 
[V:3] B2G2A4 | 
[V:4] G,2E,2D,4 | 
[V:1] z4B4 | 
[V:2] g4z4 | 
[V:3] G8 | 
[V:4] z4G,,4 | 
[V:1] A2B4AG | 
[V:2] d4d4 | 
[V:3] z4B4 | 
[V:4] D,2B,,2G,,4 | 
[V:1] F4G2B2- | 
[V:2] d6B2 | 
[V:3] A2B4AG | 
[V:4] D,4z4 | 
[V:1] B2A2B4 | 
[V:2] c4B4 | 
[V:3] F4G2B2- | 
[V:4] z4B,,4 | 
[V:1] z4d4 | 
[V:2] _e4d4 | 
[V:3] B2A2B4 | 
[V:4] C,4B,,4 | 
[V:1] c2d4cB | 
[V:2] z2f4f2 | 
[V:3] z4d4 | 
[V:4] F,2D,2B,,4 | 
[V:1] A6B2 | 
[V:2] f6_ed | 
[V:3] c2d4cB | 
[V:4] F,4z4 | 
[V:1] c4B2A2- | 
[V:2] c2>d2_e2f2- | 
[V:3] A4B2c2- | 
[V:4] F,4G,2F,2- | 
[V:1] A2G4^F2 | 
[V:2] f_ec2d2d2 | 
[V:3] cBG2A4 | 
[V:4] F,G,_E,2D,4 | 
[V:1] G4z2G2 | 
[V:2] d2d2A2B2- | 
[V:3] G6z2 | 
[V:4] z2G,,2D,2G,,2 | 
[V:1] G2G2D3E | 
[V:2] Bc2<d2cB2 | 
[V:3] z2G2G2G2 | 
[V:4] G,,6G,2 | 
[V:1] F4F2ED | 
[V:2] A2>G2A2B2 | 
[V:3] D6F2 | 
[V:4] F,2>E,2D,2B,,2 | 
[V:1] C2D4^C2 | 
[V:2] A2G2A4 | 
[V:3] E2D2E4 | 
[V:4] C,2B,,2A,,4 | 
[V:1] D8 | 
[V:2] F2>G2A2B2 | 
[V:3] D4z4 | 
[V:4] z4D,4 | 
[V:1] z8 | 
[V:2] A2d4cB | 
[V:3] z2D2F3G | 
[V:4] D,8 | 
[V:1] z4z2D2 | 
[V:2] A4z4 | 
[V:3] A2>B2A2d2- | 
[V:4] D,4D,4 | 
[V:1] F2>G2A2B2 | 
[V:2] z8 | 
[V:3] d2cBA2d2 | 
[V:4] D,2>E,2F,2G,2 | 
[V:1] A2d4cB | 
[V:2] z8 | 
[V:3] c2B2>A2G2- | 
[V:4] A,2G,4G,2 | 
[V:1] A4G4 | 
[V:2] z4d4- | 
[V:3] G2^F2G4 | 
[V:4] D,4G,,4 | 
[V:1] z8 | 
[V:2] d6cB | 
[V:3] z8 | 
[V:4] D,2>E,2F,2G,2- | 
[V:1] z8 | 
[V:2] A4G2d2- | 
[V:3] z8 | 
[V:4] G,2F,2G,3A, | 
[V:1] z8 | 
[V:2] def4e2- | 
[V:3] z8 | 
[V:4] B,2>A,2F,2A,2- | 
[V:1] z4G4 | 
[V:2] e2d4^c2 | 
[V:3] z8 | 
[V:4] A,2F,2E,4 | 
[V:1] F2>G2A2B2 | 
[V:2] d2f2>e2g2 | 
[V:3] z8 | 
[V:4] D,4z4 | 
[V:1] A2B2c4 | 
[V:2] f2d2c4 | 
[V:3] z8 | 
[V:4] z8 | 
[V:1] d4c2B2- | 
[V:2] B4z4 | 
[V:3] z4d4 | 
[V:4] z8 | 
[V:1] B2A2B4 | 
[V:2] z8 | 
[V:3] c4B2B2- | 
[V:4] z4D,4 | 
[V:1] z8 | 
[V:2] z8 | 
[V:3] B2A2B3A | 
[V:4] C,4B,,2B,,2- | 
[V:1] z8 | 
[V:2] z8 | 
[V:3] FGA2D2F2- | 
[V:4] B,,2A,,2B,,3C, | 
[V:1] z8 | 
[V:2] z8 | 
[V:3] FGAB2<c2B | 
[V:4] D,E,2<F,2G,A,2 | 
[V:1] z8 | 
[V:2] z8 | 
[V:3] AGB4A2- | 
[V:4] F,2G,4D,2- | 
[V:1] z8 | 
[V:2] z8 | 
[V:3] A2G4^F2 | 
[V:4] D,2B,,2A,,4 | 
[V:1] G2>G2G2G2 | 
[V:2] B2>B2B2B2 | 
[V:3] G2z2z4 | 
[V:4] G,,4z4 | 
[V:1] F2>G2A2D2- | 
[V:2] A2d2>e2f2- | 
[V:3] z8 | 
[V:4] z8 | 
[V:1] D2F2E4 | 
[V:2] f2d4^c2 | 
[V:3] z8 | 
[V:4] z8 | 
[V:1] D4z4 | 
[V:2] d4z4 | 
[V:3] z4d2c2 | 
[V:4] D,2>C,2B,,2A,,2 | 
[V:1] z8 | 
[V:2] z8 | 
[V:3] B2A2B2c2- | 
[V:4] D,2C,2B,,2A,,2 | 
[V:1] D4_E4 | 
[V:2] z8 | 
[V:3] c2B4A2 | 
[V:4] B,,4C,4 | 
[V:1] D2>E2FGA2- | 
[V:2] f2>g2a3g | 
[V:3] B4A3B | 
[V:4] B,,4z4 | 
[V:1] A2B2G2A2- | 
[V:2] e2f2d2e2- | 
[V:3] c2d2B2c2- | 
[V:4] z8 | 
[V:1] A2G4^F2 | 
[V:2] e2d4c2 | 
[V:3] c2G2A4 | 
[V:4] z8 | 
[V:1] G4z2B2 | 
[V:2] d4z2d2 | 
[V:3] G4z2G2 | 
[V:4] z4z2G,,2 | 
[V:1] B2B2A4 | 
[V:2] d2d2f4 | 
[V:3] G2G2F4 | 
[V:4] G,,2G,,2D,4 | 
[V:1] z2A2B2G2- | 
[V:2] z2f2d2e2 | 
[V:3] z2c2B2c2 | 
[V:4] z2F,2G,2C,2 | 
[V:1] G2F4E2 | 
[V:2] c2B2c4 | 
[V:3] A2F2G4 | 
[V:4] F,2D,2C,4 | 
[V:1] F4z2G2 | 
[V:2] A4z2d2 | 
[V:3] F4z2B2 | 
[V:4] D,4z2G,,2 | 
[V:1] G2G2A4 | 
[V:2] d2d2f4 | 
[V:3] G2G2F4 | 
[V:4] G,,2G,,2D,4 | 
[V:1] z2A2B2G2- | 
[V:2] z2_e2f2_e2- | 
[V:3] z2c2d2B2 | 
[V:4] z2C,2B,,2_E,2- | 
[V:1] G2F4E2 | 
[V:2] e2c4c2 | 
[V:3] c2A2G4 | 
[V:4] E,2F,2C,4 | 
[V:1] F4z2G2 | 
[V:2] A4z2d2 | 
[V:3] F4z2B2 | 
[V:4] D,4z2G,,2 | 
[V:1] G2G2A4 | 
[V:2] d2d2f4 | 
[V:3] B2B2A4 | 
[V:4] G,,2G,,2D,4 | 
[V:1] z2A2B2G2- | 
[V:2] z2f2d2e2 | 
[V:3] z2c2B2c2 | 
[V:4] z2F,2G,2C,2 | 
[V:1] G2F4E2 | 
[V:2] c2B2c4 | 
[V:3] A2F2G4 | 
[V:4] F,2D,2C,4 | 
[V:1] (3:2:4F2G2F2F2 | 
[V:2] (3:2:4A2d2d2d2 | 
[V:3] (3:2:4F2B2A2A2 | 
[V:4] (3:2:4D,2G,,2D,2F,2 | 
[V:1] (3:2:4G2G2A2A2 | 
[V:2] (3:2:6e2>d2B2d2>c2A2 | 
[V:3] (3:2:4G2G2F2F2 | 
[V:4] (3:2:5E,2>F,2G,2D,2D,2 | 
[V:1] (3:2:4G2G2F2F2 | 
[V:2] (3:2:5B2G2d2d2d2 | 
[V:3] (3:2:4G2G2A2A2 | 
[V:4] (3:2:4G,,2G,,2D,2F,2 | 
[V:1] (3:2:5G2>A2B2A2B2 | 
[V:2] (3:2:4_e2d2f2g2 | 
[V:3] (3:2:4G2G2c2d2 | 
[V:4] (3:2:6_E,2>F,2G,2F,2A,2G,2 | 
[V:1] (3:2:4c2B2A2G2 | 
[V:2] (3:2:4g2>_e4f2d2 | 
[V:3] (3:2:5c2_e2d2c2B2 | 
[V:4] (3:2:5C,2G,2A,2F,2G,2 | 
[V:1] (3:2:2G2^F2G4 |]  
[V:2] (3:2:2c2d2d4 |]  
[V:3] (3:2:2G2A2G4 |]  
[V:4] (3:2:2E,2D,2G,,4 |]  


